Newaita/actions/32/view-list-tree.svg

<svg height="32" viewBox="0 0 32 32" width="32" xmlns="http://www.w3.org/2000/svg"><g fill="#424242"><path d="m3.96875 8.1875h14.554688v1.324219h-14.554688zm0 0"/><path d="m5.292969 3.558594v25.136718c0 .367188-.296875.660157-.664063.660157h-1.320312c-.367188 0-.664063-.292969-.664063-.660157v-25.136718c0-.367188.296875-.664063.664063-.664063h1.320312c.367188 0 .664063.296875.664063.664063zm0 0"/><path d="m3.96875 22.742188h14.554688v1.324218h-14.554688zm0 0"/><path d="m26.460938 2.894531c1.464843 0 2.644531 1.183594 2.644531 2.648438v9.261719h-11.90625v-11.910157zm-1.324219 2.648438h-5.292969v6.613281h6.617188v-5.289062c0-.734376-.589844-1.324219-1.324219-1.324219zm0 0"/><path d="m26.460938 29.355469c1.464843 0 2.644531-1.179688 2.644531-2.644531v-9.261719h-11.90625v11.90625zm-1.324219-2.644531h-5.292969v-6.617188h6.617188v5.292969c0 .734375-.589844 1.324219-1.324219 1.324219zm0 0"/></g></svg>

<svg xmlns="http://www.w3.org/2000/svg" xmlns:xlink="http://www.w3.org/1999/xlink" width="32px" height="32px" viewBox="0 0 32 32" version="1.1">
<g id="surface1">
     <defs>
  <style id="current-color-scheme" type="text/css">
   .ColorScheme-Text { color:#424242; } .ColorScheme-Highlight { color:#eeeeee; }
  </style>
 </defs>
<path style="fill:currentColor" class="ColorScheme-Text" d="M 3.96875 8.1875 L 18.523438 8.1875 L 18.523438 9.511719 L 3.96875 9.511719 Z M 3.96875 8.1875 "/>
     <defs>
  <style id="current-color-scheme" type="text/css">
   .ColorScheme-Text { color:#424242; } .ColorScheme-Highlight { color:#eeeeee; }
  </style>
 </defs>
<path style="fill:currentColor" class="ColorScheme-Text" d="M 5.292969 3.558594 L 5.292969 28.695312 C 5.292969 29.0625 4.996094 29.355469 4.628906 29.355469 L 3.308594 29.355469 C 2.941406 29.355469 2.644531 29.0625 2.644531 28.695312 L 2.644531 3.558594 C 2.644531 3.191406 2.941406 2.894531 3.308594 2.894531 L 4.628906 2.894531 C 4.996094 2.894531 5.292969 3.191406 5.292969 3.558594 Z M 5.292969 3.558594 "/>
     <defs>
  <style id="current-color-scheme" type="text/css">
   .ColorScheme-Text { color:#424242; } .ColorScheme-Highlight { color:#eeeeee; }
  </style>
 </defs>
<path style="fill:currentColor" class="ColorScheme-Text" d="M 3.96875 22.742188 L 18.523438 22.742188 L 18.523438 24.066406 L 3.96875 24.066406 Z M 3.96875 22.742188 "/>
     <defs>
  <style id="current-color-scheme" type="text/css">
   .ColorScheme-Text { color:#424242; } .ColorScheme-Highlight { color:#eeeeee; }
  </style>
 </defs>
<path style="fill:currentColor" class="ColorScheme-Text" d="M 26.460938 2.894531 C 27.925781 2.894531 29.105469 4.078125 29.105469 5.542969 L 29.105469 14.804688 L 17.199219 14.804688 L 17.199219 2.894531 Z M 25.136719 5.542969 L 19.84375 5.542969 L 19.84375 12.15625 L 26.460938 12.15625 L 26.460938 6.867188 C 26.460938 6.132812 25.871094 5.542969 25.136719 5.542969 Z M 25.136719 5.542969 "/>
     <defs>
  <style id="current-color-scheme" type="text/css">
   .ColorScheme-Text { color:#424242; } .ColorScheme-Highlight { color:#eeeeee; }
  </style>
 </defs>
<path style="fill:currentColor" class="ColorScheme-Text" d="M 26.460938 29.355469 C 27.925781 29.355469 29.105469 28.175781 29.105469 26.710938 L 29.105469 17.449219 L 17.199219 17.449219 L 17.199219 29.355469 Z M 25.136719 26.710938 L 19.84375 26.710938 L 19.84375 20.09375 L 26.460938 20.09375 L 26.460938 25.386719 C 26.460938 26.121094 25.871094 26.710938 25.136719 26.710938 Z M 25.136719 26.710938 "/>
</g>
</svg>
